nextcloudappstore/core/static/assets/img/icons/categories/featured.svg

<svg width="16.667" height="15.833" fill="none" style="-webkit-print-color-adjust:exact" version="1.1" viewBox="-7572.3 3283.7 16.667 15.833" xmlns="http://www.w3.org/2000/svg"><g class="fills"><path rx="0" ry="0" d="m-7564 3296.4 5.15 3.108-1.367-5.858 4.55-3.942-5.991-0.517-2.342-5.516-2.342 5.516-5.991 0.517 4.541 3.942-1.358 5.858 5.15-3.108z" fill="#007bbd"/></g></svg>

<svg xmlns:xlink="http://www.w3.org/1999/xlink" width="16.667" xmlns="http://www.w3.org/2000/svg" height="15.833" id="screenshot-db15cf86-6f9e-8025-8002-bbab9ed6fe08" viewBox="-7572.333 3283.667 16.667 15.833" style="-webkit-print-color-adjust: exact;" fill="none" version="1.1"><g id="shape-db15cf86-6f9e-8025-8002-bbab9ed6fe08"><g class="fills" id="fills-db15cf86-6f9e-8025-8002-bbab9ed6fe08"><path rx="0" ry="0" d="M-7564.000,3296.392L-7558.850,3299.500L-7560.217,3293.642L-7555.667,3289.700L-7561.658,3289.183L-7564.000,3283.667L-7566.342,3289.183L-7572.333,3289.700L-7567.792,3293.642L-7569.150,3299.500L-7564.000,3296.392ZZ" style="fill: rgb(0, 123, 189); fill-opacity: 1;"/></g></g></svg>
